svgs/thin/circle-i.svg

<svg xmlns="http://www.w3.org/2000/svg" viewBox="0 0 512 512"><!-- Font Awesome Pro 6.0.0-alpha2 by @fontawesome - https://fontawesome.com License - https://fontawesome.com/license (Commercial License) --><path d="M344 144C348.406 144 352 140.422 352 136S348.406 128 344 128H168C163.594 128 160 131.578 160 136S163.594 144 168 144H248V368H168C163.594 368 160 371.578 160 376S163.594 384 168 384H344C348.406 384 352 380.422 352 376S348.406 368 344 368H264V144H344ZM256 16C123.451 16 16 123.451 16 256S123.451 496 256 496S496 388.549 496 256S388.549 16 256 16ZM256 480C132.486 480 32 379.514 32 256S132.486 32 256 32S480 132.486 480 256S379.514 480 256 480Z"/></svg>

<svg xmlns="http://www.w3.org/2000/svg" viewBox="0 0 512 512"><!--! Font Awesome Pro 6.3.0 by @fontawesome - https://fontawesome.com License - https://fontawesome.com/license (Commercial License) Copyright 2023 Fonticons, Inc. --><path d="M344 144C348.4 144 352 140.4 352 136S348.4 128 344 128h-176C163.6 128 160 131.6 160 136S163.6 144 168 144h80v224h-80C163.6 368 160 371.6 160 376S163.6 384 168 384h176c4.406 0 8-3.578 8-8s-3.594-8-8-8h-80v-224H344zM256 0C114.6 0 0 114.6 0 256s114.6 256 256 256s256-114.6 256-256S397.4 0 256 0zM256 496c-132.3 0-240-107.7-240-240S123.7 16 256 16s240 107.7 240 240S388.3 496 256 496z"/></svg>
